packages/tokens/icons/ot/size32Px.svg

<svg viewBox="0 0 32 32" fill="none" xmlns="http://www.w3.org/2000/svg" width="1em" height="1em"><rect x="2.5" y="2.5" width="27" height="27" rx="6" stroke="currentColor"/><path d="M12.7945 21.18C12.0845 21.18 11.4095 21.06 10.7695 20.82C10.1295 20.57 9.56451 20.215 9.07451 19.755C8.59451 19.295 8.20951 18.735 7.91951 18.075C7.63951 17.415 7.49951 16.67 7.49951 15.84C7.49951 15.01 7.63951 14.27 7.91951 13.62C8.20951 12.96 8.59451 12.4 9.07451 11.94C9.56451 11.47 10.1295 11.115 10.7695 10.875C11.4095 10.625 12.0845 10.5 12.7945 10.5C13.5045 10.5 14.1795 10.625 14.8195 10.875C15.4595 11.115 16.0195 11.47 16.4995 11.94C16.9895 12.4 17.3745 12.96 17.6545 13.62C17.9445 14.27 18.0895 15.01 18.0895 15.84C18.0895 16.67 17.9445 17.415 17.6545 18.075C17.3745 18.735 16.9945 19.295 16.5145 19.755C16.0345 20.215 15.4745 20.57 14.8345 20.82C14.1945 21.06 13.5145 21.18 12.7945 21.18ZM12.7945 20.16C13.3545 20.16 13.8845 20.06 14.3845 19.86C14.8945 19.66 15.3345 19.375 15.7045 19.005C16.0845 18.635 16.3845 18.18 16.6045 17.64C16.8245 17.1 16.9345 16.495 16.9345 15.825C16.9345 15.145 16.8245 14.54 16.6045 14.01C16.3845 13.47 16.0845 13.015 15.7045 12.645C15.3345 12.275 14.8945 11.995 14.3845 11.805C13.8845 11.605 13.3545 11.505 12.7945 11.505C12.2345 11.505 11.7045 11.605 11.2045 11.805C10.7045 11.995 10.2645 12.275 9.88451 12.645C9.50451 13.015 9.20451 13.47 8.98451 14.01C8.76451 14.54 8.65451 15.145 8.65451 15.825C8.65451 16.495 8.76451 17.1 8.98451 17.64C9.21451 18.18 9.51451 18.635 9.88451 19.005C10.2645 19.375 10.7045 19.66 11.2045 19.86C11.7145 20.06 12.2445 20.16 12.7945 20.16ZM20.8527 11.61H17.8377V10.65L24.9777 10.65V11.61L21.9777 11.61V21H20.8527V11.61Z" fill="currentColor"/></svg>

<svg xmlns="http://www.w3.org/2000/svg" fill="none" viewBox="0 0 32 32" width="1em" height="1em"><rect width="27" height="27" x="2.5" y="2.5" stroke="currentColor" rx="6"/><path fill="currentColor" d="M12.794 21.18a5.72 5.72 0 0 1-2.024-.36 5.233 5.233 0 0 1-1.695-1.065 5.182 5.182 0 0 1-1.155-1.68c-.28-.66-.42-1.405-.42-2.235 0-.83.14-1.57.42-2.22.29-.66.675-1.22 1.155-1.68a4.917 4.917 0 0 1 1.695-1.065 5.516 5.516 0 0 1 2.024-.375c.71 0 1.386.125 2.025.375.64.24 1.2.595 1.68 1.065.49.46.876 1.02 1.155 1.68.29.65.436 1.39.436 2.22 0 .83-.145 1.575-.436 2.235-.28.66-.66 1.22-1.14 1.68-.48.46-1.04.815-1.68 1.065-.64.24-1.32.36-2.04.36Zm0-1.02c.56 0 1.09-.1 1.59-.3.51-.2.95-.485 1.32-.855.38-.37.68-.825.9-1.365.22-.54.33-1.145.33-1.815 0-.68-.11-1.285-.33-1.815-.22-.54-.52-.995-.9-1.365-.37-.37-.81-.65-1.32-.84-.5-.2-1.03-.3-1.59-.3s-1.09.1-1.59.3c-.5.19-.94.47-1.32.84-.38.37-.68.825-.9 1.365-.22.53-.33 1.135-.33 1.815 0 .67.11 1.275.33 1.815.23.54.53.995.9 1.365.38.37.82.655 1.32.855.51.2 1.04.3 1.59.3Zm8.059-8.55h-3.015v-.96h7.14v.96h-3V21h-1.125v-9.39Z"/></svg>
